images/company2.svg

<svg width="123" height="40" viewBox="0 0 123 40" fill="none" xmlns="http://www.w3.org/2000/svg">
<g id="Frame" clip-path="url(#clip0_282_1439)">
<path id="Vector" fill-rule="evenodd" clip-rule="evenodd" d="M102.305 0H20.7054C18.0939 0.0149652 15.511 0.544156 13.1041 1.55736C10.6971 2.57056 8.51336 4.04793 6.67741 5.90511C4.84145 7.76229 3.38928 9.96291 2.40381 12.3813C1.41834 14.7997 0.918873 17.3886 0.933924 20C0.918873 22.6114 1.41834 25.2003 2.40381 27.6187C3.38928 30.0371 4.84145 32.2377 6.67741 34.0949C8.51336 35.9521 10.6971 37.4294 13.1041 38.4426C15.511 39.4558 18.0939 39.985 20.7054 40H102.305C104.917 39.985 107.5 39.4558 109.907 38.4426C112.314 37.4294 114.497 35.9521 116.333 34.0949C118.169 32.2377 119.621 30.0371 120.607 27.6187C121.592 25.2003 122.092 22.6114 122.077 20C122.092 17.3886 121.592 14.7997 120.607 12.3813C119.621 9.96291 118.169 7.76229 116.333 5.90511C114.497 4.04793 112.314 2.57056 109.907 1.55736C107.5 0.544156 104.917 0.0149652 102.305 0ZM101.997 37.6H20.9339C16.3024 37.5698 11.872 35.7032 8.61519 32.41C5.35838 29.1167 3.54121 24.6659 3.5625 20.0343C3.5625 10.32 11.3454 2.43429 20.9454 2.43429H102.008C111.608 2.43429 119.402 10.32 119.402 20.0343C119.413 22.3306 118.971 24.6064 118.102 26.7319C117.233 28.8574 115.954 30.7909 114.338 32.422C112.721 34.0532 110.8 35.35 108.682 36.2384C106.565 37.1269 104.293 37.5895 101.997 37.6Z" fill="white"/>
<path id="Vector_2" fill-rule="evenodd" clip-rule="evenodd" d="M34.0863 17.3828C33.2977 17.3828 33.2291 18.1143 33.2291 18.5828V19.04H34.9434V18.5828C34.9434 18.1257 34.8748 17.3828 34.0863 17.3828ZM58.4291 17.3828C57.4691 17.3828 57.5834 18.4914 57.5834 19.1543V22.5714C57.5834 23.2114 57.5263 24.1828 58.4177 24.1828C59.2977 24.1828 59.252 23.2114 59.252 22.5714V19.1428C59.252 18.5143 59.3891 17.3828 58.4291 17.3828ZM82.0177 19.3028V21.9085C82.0177 22.5485 82.0177 23.5885 82.932 23.5885C83.1949 23.5885 83.4691 23.5085 83.7091 23.3714V18.08C83.4806 17.9314 83.1834 17.84 82.9091 17.84C82.0177 17.84 82.0177 18.6285 82.0177 19.3028ZM21.1148 14.1143H20.7148V23.3028H21.1148C22.2006 23.3028 22.5434 22.9028 22.5434 21.7371V15.68C22.5434 14.5143 22.2006 14.1143 21.1148 14.1143Z" fill="white"/>
<path id="Vector_3" fill-rule="evenodd" clip-rule="evenodd" d="M101.904 6.25146H21.0241C17.3793 6.25146 13.8837 7.69937 11.3064 10.2767C8.72915 12.8539 7.28125 16.3495 7.28125 19.9943C7.28125 23.6392 8.72915 27.1347 11.3064 29.712C13.8837 32.2893 17.3793 33.7372 21.0241 33.7372H101.904C105.549 33.7372 109.044 32.2893 111.622 29.712C114.199 27.1347 115.647 23.6392 115.647 19.9943C115.647 16.3495 114.199 12.8539 111.622 10.2767C109.044 7.69937 105.549 6.25146 101.904 6.25146ZM29.367 12.4115H38.9098V13.2343H29.367V12.4115ZM27.5384 21.5772C27.5384 23.1543 27.4698 24.3772 26.247 25.52C25.1041 26.6058 23.687 26.6972 22.167 26.6972H15.0813V23.84C15.6413 23.6115 15.6984 23.1086 15.7098 22.5715V14.7315C15.6984 14.1715 15.6527 13.7029 15.0813 13.4629V10.6058H22.0184C23.3898 10.6058 24.9555 10.6172 26.0984 11.5086C27.4127 12.5372 27.5498 14 27.5498 15.5429V21.5772H27.5384ZM39.3098 18.9486V21.7372H33.2298V22.8343C33.207 23.4058 33.287 24.1829 34.0527 24.1829C34.8184 24.1829 34.8755 23.4972 34.8755 22.8915V22.4572H39.2984V25.4286C38.327 26.2629 36.5098 26.8115 34.6927 26.9486C32.887 27.0743 31.0698 26.7772 30.0984 26.0343C28.8641 25.12 28.807 23.8058 28.807 22.3772V19.1772C28.727 15.9315 29.8127 14.64 33.9498 14.6172C38.3041 14.6058 39.3784 16.0458 39.2984 18.9372L39.3098 18.9486ZM52.0184 26.6972H40.3155V23.84C40.9212 23.4743 40.8641 22.8686 40.8641 22.2629V15.04C40.8641 14.4343 40.9212 13.8286 40.3155 13.4629V10.6058H46.407V13.4629C45.8127 13.8286 45.8698 14.4343 45.8698 15.04V23.28H46.3498C47.6298 23.28 47.607 22.5143 47.607 21.4972V18.8915H52.0184V26.6972ZM63.6755 22.1943C63.6755 23.5086 63.6413 24.9943 62.5784 25.9086C61.5041 26.8229 59.927 26.9372 58.5784 26.9372C57.367 26.9372 55.6413 26.8458 54.6012 26.16C53.1613 25.2 53.1613 23.76 53.1613 22.1943V19.1086C53.1613 17.84 53.1841 16.4458 54.2927 15.5772C55.3555 14.7315 56.807 14.6172 58.1327 14.6172C59.3327 14.6172 61.1384 14.72 62.167 15.3143C63.5841 16.1829 63.687 17.6 63.687 19.1086V22.1943H63.6755ZM76.3955 26.6972H71.687C71.4241 25.4972 71.447 24.24 71.447 23.0172V19.5658C71.447 19.4858 71.5041 18.9486 71.3098 18.5143C71.0127 18.0572 70.5327 17.7143 69.8013 18.0572V22.4915C69.8013 23.0743 69.7441 23.7372 70.3384 24.0572V26.6972H64.8298V24.0572C65.4013 23.7143 65.367 23.1658 65.367 22.5715V18.9715C65.367 18.3315 65.3898 17.92 64.8298 17.5086V14.8572H69.607V15.5886C70.5356 14.9174 71.6619 14.5755 72.807 14.6172C73.7213 14.6515 74.5213 14.96 74.9784 15.4058C75.7784 16.1715 75.8698 17.04 75.8698 18.0458V22.48C75.8698 23.0629 75.8127 23.7258 76.3955 24.0458V26.6858V26.6972ZM88.6813 17.5086C88.0984 17.8743 88.1327 18.3772 88.1327 18.9829V26.16C88.1327 27.4858 88.1898 29.2915 87.1612 30.2858C86.1441 31.28 84.4413 31.4515 83.0927 31.4515C81.2838 31.5206 79.4913 31.0854 77.9155 30.1943V27.36H82.0298C82.0298 27.6229 82.0413 27.9543 82.1441 28.2172C82.2812 28.48 82.487 28.6743 82.8527 28.6743C83.8241 28.6743 83.7098 27.5086 83.7098 26.8343V26.08C82.9213 26.6858 81.9498 26.9486 81.1041 26.9486C78.8755 26.9486 77.5955 25.8515 77.5955 23.2686V18.8115C77.5955 16.24 78.2584 14.6172 80.8984 14.6172C81.9498 14.6172 82.9784 14.9029 83.8241 15.5429V14.8572H88.6813V17.5086ZM101.47 26.6972H96.7613C96.4984 25.4972 96.5213 24.24 96.5213 23.0172V19.5658C96.5213 19.4858 96.5784 18.9486 96.3841 18.5143C96.087 18.0572 95.5955 17.7143 94.8641 18.0572V22.4915C94.8641 23.0743 94.8184 23.7372 95.4127 24.0572V26.6972H89.9041V24.0572C90.4755 23.7143 90.4413 23.1658 90.4413 22.5715V14.8115C90.4641 14.2058 90.4984 13.5658 89.8813 13.2572V10.6058H94.8641V15.3943C95.7784 14.8458 96.807 14.5829 97.8698 14.6286C98.7841 14.6629 99.5841 14.9715 100.041 15.4172C100.841 16.1829 100.944 17.0515 100.944 18.0572V22.4915C100.944 23.0743 100.887 23.7372 101.47 24.0572V26.6972ZM105.127 10.4572C106.236 10.4572 107.504 11.0515 107.504 12.3315C107.504 13.6115 106.247 14.16 105.161 14.16C104.007 14.16 102.727 13.5886 102.727 12.2515C102.727 10.9258 104.041 10.4572 105.127 10.4572ZM108.064 26.6972H102.533V24.0572C103.116 23.6915 103.081 23.1658 103.081 22.5715V19.0743C103.081 18.4686 103.138 17.8743 102.533 17.52V14.8572H107.504V22.48C107.504 23.0858 107.447 23.68 108.076 24.0458V26.6858L108.064 26.6972Z" fill="white"/>
</g>
<defs>
<clipPath id="clip0_282_1439">
<rect width="121.143" height="40" fill="white" transform="translate(0.933594)"/>
</clipPath>
</defs>
</svg>

<svg width="123" height="40" fill="none" xmlns="http://www.w3.org/2000/svg"><g clip-path="url(#a)" fill-rule="evenodd" clip-rule="evenodd" fill="#fff"><path d="M102.305 0h-81.6A19.885 19.885 0 0 0 .934 20a19.886 19.886 0 0 0 19.771 20h81.6a19.888 19.888 0 0 0 19.772-20 19.896 19.896 0 0 0-5.744-14.095A19.883 19.883 0 0 0 102.305 0Zm-.308 37.6H20.934A17.486 17.486 0 0 1 3.562 20.034c0-9.714 7.783-17.6 17.383-17.6h81.063c9.6 0 17.394 7.886 17.394 17.6a17.477 17.477 0 0 1-5.064 12.388 17.488 17.488 0 0 1-12.341 5.178Z"/><path d="M34.086 17.383c-.788 0-.857.731-.857 1.2v.457h1.714v-.457c0-.457-.068-1.2-.857-1.2Zm24.343 0c-.96 0-.846 1.108-.846 1.771v3.417c0 .64-.057 1.612.835 1.612.88 0 .834-.972.834-1.612v-3.428c0-.629.137-1.76-.823-1.76Zm23.589 1.92v2.605c0 .64 0 1.68.914 1.68.263 0 .537-.08.777-.217V18.08a1.525 1.525 0 0 0-.8-.24c-.891 0-.891.788-.891 1.463Zm-60.903-5.189h-.4v9.189h.4c1.086 0 1.428-.4 1.428-1.566V15.68c0-1.166-.342-1.566-1.428-1.566Z"/><path d="M101.904 6.251h-80.88a13.743 13.743 0 0 0 0 27.486h80.88a13.745 13.745 0 0 0 9.718-23.46 13.744 13.744 0 0 0-9.718-4.026Zm-72.537 6.16h9.543v.823h-9.543v-.822Zm-1.829 9.166c0 1.577-.068 2.8-1.291 3.943-1.143 1.086-2.56 1.177-4.08 1.177h-7.086V23.84c.56-.229.617-.731.629-1.268v-7.84c-.012-.56-.057-1.03-.629-1.27v-2.856h6.937c1.372 0 2.938.011 4.08.903 1.315 1.028 1.452 2.491 1.452 4.034v6.034h-.012ZM39.31 18.95v2.788h-6.08v1.097c-.023.572.057 1.349.823 1.349.765 0 .823-.686.823-1.291v-.435h4.422v2.972c-.971.834-2.788 1.383-4.605 1.52-1.806.125-3.623-.172-4.595-.915-1.234-.914-1.291-2.228-1.291-3.657v-3.2c-.08-3.245 1.006-4.537 5.143-4.56 4.354-.011 5.428 1.429 5.348 4.32l.012.012Zm12.708 7.748H40.315V23.84c.606-.366.55-.971.55-1.577V15.04c0-.606.056-1.211-.55-1.577v-2.857h6.092v2.857c-.594.366-.537.971-.537 1.577v8.24h.48c1.28 0 1.257-.766 1.257-1.783v-2.605h4.411v7.805Zm11.657-4.503c0 1.315-.034 2.8-1.097 3.715-1.074.914-2.651 1.028-4 1.028-1.211 0-2.937-.091-3.977-.777-1.44-.96-1.44-2.4-1.44-3.966V19.11c0-1.269.023-2.663 1.132-3.532 1.063-.845 2.514-.96 3.84-.96 1.2 0 3.005.103 4.034.697 1.417.869 1.52 2.286 1.52 3.795v3.085h-.011Zm12.72 4.503h-4.708c-.263-1.2-.24-2.457-.24-3.68v-3.451c0-.08.057-.617-.137-1.052-.297-.457-.777-.8-1.509-.457v4.434c0 .583-.057 1.246.537 1.566v2.64H64.83v-2.64c.571-.343.537-.891.537-1.485v-3.6c0-.64.023-1.052-.537-1.463v-2.652h4.777v.732a5.143 5.143 0 0 1 3.2-.972c.914.034 1.714.343 2.171.789.8.766.892 1.634.892 2.64v4.434c0 .583-.057 1.246.525 1.566V26.697Zm12.286-9.188c-.583.365-.548.868-.548 1.474v7.177c0 1.326.057 3.131-.972 4.126-1.017.994-2.72 1.165-4.068 1.165a9.76 9.76 0 0 1-5.178-1.257V27.36h4.115c0 .263.011.594.114.857.137.263.343.457.709.457.971 0 .857-1.165.857-1.84v-.754c-.789.606-1.76.869-2.606.869-2.228 0-3.508-1.098-3.508-3.68v-4.457c0-2.572.662-4.195 3.302-4.195 1.052 0 2.08.286 2.926.926v-.686h4.857v2.652Zm12.789 9.188h-4.709c-.263-1.2-.24-2.457-.24-3.68v-3.451c0-.08.057-.617-.137-1.052-.297-.457-.788-.8-1.52-.457v4.434c0 .583-.046 1.246.549 1.566v2.64h-5.509v-2.64c.572-.343.537-.891.537-1.485v-7.76c.023-.606.057-1.246-.56-1.555v-2.651h4.983v4.788a5.35 5.35 0 0 1 3.006-.765c.914.034 1.714.343 2.171.788.8.766.903 1.635.903 2.64v4.434c0 .583-.057 1.246.526 1.566v2.64Zm3.657-16.24c1.109 0 2.377.595 2.377 1.874 0 1.28-1.257 1.829-2.343 1.829-1.154 0-2.434-.571-2.434-1.909 0-1.325 1.314-1.794 2.4-1.794Zm2.937 16.24h-5.531v-2.64c.583-.365.548-.891.548-1.485v-3.498c0-.605.057-1.2-.548-1.554v-2.663h4.971v7.623c0 .606-.057 1.2.572 1.566v2.64l-.012.011Z"/></g><defs><clipPath id="a"><path fill="#fff" transform="translate(.934)" d="M0 0h121.143v40H0z"/></clipPath></defs></svg>
